build/img/payment__paypal.svg

<svg width="48" height="29" viewBox="0 0 48 29" fill="none" xmlns="http://www.w3.org/2000/svg">
<path d="M46.3158 0H1.68421C0.754047 0 0 0.741928 0 1.65714V27.3429C0 28.2581 0.754047 29 1.68421 29H46.3158C47.246 29 48 28.2581 48 27.3429V1.65714C48 0.741928 47.246 0 46.3158 0Z" fill="white"/>
<path d="M34.3077 12.188H32.2614C32.1951 12.1994 32.1327 12.2271 32.0802 12.2685C32.0276 12.31 31.9866 12.3638 31.9608 12.425L31.1187 17.6358C31.1153 17.6599 31.1177 17.6844 31.1256 17.7074C31.1334 17.7304 31.1466 17.7513 31.164 17.7685C31.1815 17.7857 31.2028 17.7986 31.2262 17.8064C31.2496 17.8141 31.2744 17.8165 31.2989 17.8132H32.381C32.4055 17.8165 32.4303 17.8141 32.4537 17.8064C32.4771 17.7986 32.4984 17.7857 32.5158 17.7685C32.5333 17.7513 32.5464 17.7304 32.5543 17.7074C32.5622 17.6844 32.5645 17.6599 32.5612 17.6358L32.8021 16.1552C32.8107 16.0849 32.847 16.0207 32.9032 15.9764C32.9594 15.9321 33.031 15.9112 33.1027 15.9182H33.7646C34.051 15.9524 34.3416 15.928 34.6181 15.8466C34.8945 15.7652 35.1509 15.6285 35.3712 15.4451C35.5915 15.2617 35.771 15.0355 35.8984 14.7808C36.0258 14.526 36.0983 14.2481 36.1115 13.9644C36.1715 13.7433 36.181 13.5118 36.1393 13.2867C36.0977 13.0615 36.0059 12.8481 35.8707 12.6619C35.4206 12.3305 34.8676 12.163 34.306 12.188H34.3077ZM34.5469 14.1418C34.4265 14.8527 33.885 14.8527 33.3435 14.8527H32.9823L33.2231 13.4905C33.2231 13.4317 33.2829 13.372 33.4033 13.372H33.5237C33.885 13.372 34.2462 13.372 34.4265 13.609C34.5469 13.6678 34.5469 13.846 34.5469 14.1418Z" fill="#139AD6"/>
<path d="M19.6202 12.1881H17.5739C17.5076 12.1995 17.4452 12.2272 17.3927 12.2687C17.3401 12.3101 17.2991 12.3639 17.2733 12.4251L16.4312 17.636C16.4278 17.66 16.4302 17.6845 16.4381 17.7075C16.4459 17.7306 16.4591 17.7515 16.4765 17.7686C16.494 17.7858 16.5152 17.7988 16.5386 17.8065C16.562 17.8143 16.5869 17.8166 16.6114 17.8133H17.5739C17.6402 17.8019 17.7026 17.7742 17.7551 17.7328C17.8077 17.6913 17.8487 17.6375 17.8745 17.5763L18.1154 16.1553C18.124 16.085 18.1604 16.0208 18.2166 15.9765C18.2728 15.9322 18.3444 15.9113 18.416 15.9183H19.0779C19.3644 15.9525 19.6549 15.9281 19.9314 15.8467C20.2079 15.7653 20.4643 15.6286 20.6846 15.4452C20.9049 15.2618 21.0843 15.0357 21.2117 14.7809C21.3391 14.5261 21.4116 14.2482 21.4248 13.9646C21.4848 13.7434 21.4943 13.512 21.4527 13.2868C21.411 13.0616 21.3193 12.8483 21.184 12.6621C20.7386 12.3217 20.1822 12.1532 19.6194 12.1881H19.6202ZM19.8602 14.1419C19.7398 14.8528 19.1983 14.8528 18.6568 14.8528H18.3562L18.5971 13.4906C18.5971 13.4318 18.6568 13.3721 18.7773 13.3721H18.8977C19.259 13.3721 19.6202 13.3721 19.8004 13.6091C19.8493 13.6882 19.88 13.7769 19.8904 13.869C19.9007 13.961 19.8904 14.0542 19.8602 14.1419Z" fill="#263B80"/>
<path d="M25.8189 14.0834H24.853C24.7932 14.0834 24.6728 14.1422 24.6728 14.2019L24.613 14.4977L24.5532 14.3792C24.406 14.2307 24.2269 14.1164 24.0291 14.0448C23.8312 13.9731 23.6196 13.9458 23.4096 13.9649C22.8638 13.9795 22.3409 14.1837 21.9333 14.5413C21.5258 14.8988 21.2601 15.3868 21.1831 15.9187C21.1272 16.1764 21.1306 16.4431 21.1931 16.6993C21.2556 16.9555 21.3757 17.1947 21.5444 17.3993C21.7033 17.5691 21.9001 17.7003 22.1193 17.7825C22.3385 17.8648 22.5741 17.8958 22.8075 17.8733C23.0627 17.8793 23.3165 17.8353 23.5542 17.7438C23.7919 17.6523 24.0087 17.5152 24.192 17.3405L24.1322 17.6363C24.1288 17.6604 24.1312 17.6849 24.1391 17.7079C24.1469 17.7309 24.1601 17.7518 24.1776 17.769C24.195 17.7861 24.2163 17.7991 24.2397 17.8068C24.263 17.8146 24.2879 17.8169 24.3124 17.8136H25.2151C25.2815 17.8022 25.3438 17.7745 25.3963 17.7331C25.4489 17.6917 25.49 17.6379 25.5158 17.5766L26.0572 14.2624C25.9974 14.2035 25.877 14.085 25.8164 14.085L25.8189 14.0834ZM24.432 15.9783C24.3847 16.2432 24.2442 16.4832 24.0351 16.6564C23.826 16.8295 23.5617 16.9248 23.2884 16.9254C23.0453 16.9315 22.8088 16.8469 22.6265 16.6884C22.4963 16.4742 22.4336 16.2268 22.4463 15.9775C22.4662 15.788 22.5378 15.6073 22.6535 15.4546C22.7692 15.3018 22.9248 15.1827 23.1037 15.1099C23.2826 15.037 23.4782 15.0131 23.6698 15.0407C23.8613 15.0683 24.0418 15.1463 24.192 15.2666C24.3598 15.4656 24.4457 15.7192 24.4328 15.9775" fill="#263B80"/>
<path d="M40.4175 14.0834H39.4516C39.3919 14.0834 39.2714 14.1422 39.2714 14.2019L39.2116 14.4977L39.1519 14.3792C39.0046 14.2307 38.8255 14.1164 38.6277 14.0448C38.4298 13.9731 38.2182 13.9458 38.0083 13.9649C37.4625 13.9795 36.9395 14.1837 36.532 14.5413C36.1245 14.8988 35.8587 15.3868 35.7818 15.9187C35.7258 16.1764 35.7292 16.4431 35.7917 16.6993C35.8543 16.9555 35.9743 17.1947 36.143 17.3993C36.3019 17.5691 36.4987 17.7003 36.7179 17.7825C36.9371 17.8648 37.1727 17.8958 37.4062 17.8733C37.6613 17.8793 37.9151 17.8353 38.1528 17.7438C38.3905 17.6523 38.6073 17.5152 38.7906 17.3405L38.7308 17.6363C38.7273 17.6604 38.7295 17.685 38.7373 17.7081C38.7451 17.7312 38.7583 17.7521 38.7758 17.7693C38.7933 17.7866 38.8146 17.7995 38.8381 17.8072C38.8616 17.8149 38.8865 17.8171 38.911 17.8136H39.8137C39.8801 17.8022 39.9424 17.7745 39.995 17.7331C40.0475 17.6917 40.0886 17.6379 40.1144 17.5766L40.6559 14.2624C40.5961 14.2035 40.5354 14.085 40.415 14.085L40.4175 14.0834ZM39.0306 15.9783C38.9833 16.2432 38.8428 16.4832 38.6338 16.6564C38.4247 16.8295 38.1603 16.9248 37.887 16.9254C37.6439 16.9315 37.4074 16.8469 37.2251 16.6884C37.095 16.4742 37.0323 16.2268 37.0449 15.9775C37.0648 15.788 37.1364 15.6073 37.2521 15.4546C37.3678 15.3018 37.5234 15.1827 37.7023 15.1099C37.8812 15.037 38.0768 15.0131 38.2684 15.0407C38.46 15.0683 38.6404 15.1463 38.7906 15.2666C38.8972 15.3488 38.9768 15.46 39.0196 15.5864C39.0624 15.7128 39.0666 15.8488 39.0314 15.9775" fill="#139AD6"/>
<path d="M31.0161 14.083H29.9929C29.9463 14.0838 29.9005 14.0949 29.8589 14.1154C29.8172 14.1359 29.7807 14.1653 29.7521 14.2015L28.4283 16.2149L27.8262 14.32C27.8044 14.2609 27.7626 14.2111 27.7079 14.1788C27.6531 14.1465 27.5888 14.1337 27.5256 14.1427H26.563C26.4426 14.1427 26.3828 14.2612 26.3828 14.3796L27.4658 17.5183L26.4426 18.9393C26.3828 19.0577 26.4426 19.2351 26.563 19.2351H27.5256C27.5722 19.2342 27.6179 19.2232 27.6596 19.2027C27.7013 19.1822 27.7378 19.1527 27.7664 19.1166L31.0767 14.4385C31.2569 14.2612 31.1365 14.083 31.0161 14.083Z" fill="#263B80"/>
<path d="M41.5623 12.3652L40.7202 17.6946C40.7169 17.7186 40.7192 17.7431 40.7271 17.7661C40.735 17.7891 40.7482 17.81 40.7656 17.8272C40.7831 17.8444 40.8043 17.8573 40.8277 17.8651C40.8511 17.8728 40.876 17.8752 40.9004 17.8719H41.7425C41.8089 17.8605 41.8712 17.8328 41.9237 17.7913C41.9763 17.7499 42.0174 17.6961 42.0432 17.6349L42.8853 12.424C42.8886 12.3999 42.8863 12.3755 42.8784 12.3524C42.8705 12.3294 42.8573 12.3085 42.8399 12.2914C42.8224 12.2742 42.8012 12.2612 42.7778 12.2535C42.7544 12.2457 42.7295 12.2434 42.7051 12.2467H41.7425C41.6827 12.1879 41.6221 12.2467 41.5623 12.3652Z" fill="#139AD6"/>
<path d="M12.032 10.4709C11.7206 10.204 11.3563 10.0036 10.9622 9.88224C10.5681 9.76088 10.1528 9.72123 9.7423 9.76576H6.73598C6.63896 9.77914 6.54782 9.81944 6.47325 9.88195C6.39868 9.94447 6.34376 10.0266 6.31493 10.1187L5.11072 17.8162C5.10361 17.8865 5.12488 17.9567 5.16994 18.0117C5.21499 18.0668 5.28022 18.1022 5.35156 18.1103H7.21598L7.69767 15.231V15.3487C7.72649 15.2565 7.78141 15.1744 7.85599 15.1119C7.93056 15.0494 8.0217 15.0091 8.11872 14.9957H9.0223C10.768 14.9957 12.0918 14.2906 12.5128 12.3517V12.1752C12.5676 11.8738 12.5527 11.5641 12.4693 11.2691C12.386 10.974 12.2362 10.7012 12.0311 10.4709" fill="#263B80"/>
<path d="M12.4526 12.1279V12.3052C12.0315 14.3187 10.7069 14.9699 8.96207 14.9699H8.05934C7.96205 14.9836 7.87074 15.0243 7.79615 15.0873C7.72157 15.1502 7.6668 15.2329 7.63829 15.3254L7.03618 18.938C7.03305 18.9699 7.03712 19.002 7.04812 19.0322C7.05911 19.0623 7.07676 19.0897 7.09978 19.1124C7.1228 19.135 7.15063 19.1524 7.18127 19.1632C7.21192 19.174 7.24462 19.178 7.27702 19.1749H8.84165C8.92917 19.1817 9.0159 19.1545 9.08338 19.0993C9.15086 19.044 9.19375 18.965 9.20292 18.8791V18.8203L9.50355 16.985V16.8665C9.51272 16.7806 9.55561 16.7016 9.62309 16.6464C9.69056 16.5911 9.77729 16.564 9.86481 16.5707H10.1057C11.6105 16.5707 12.8139 15.9783 13.1145 14.2018C13.1961 13.9018 13.2115 13.588 13.1597 13.2816C13.1078 12.9752 12.9899 12.6832 12.8139 12.4254C12.7379 12.2837 12.608 12.1774 12.4526 12.1296" fill="#139AD6"/>
<path d="M12.0317 11.9925C11.9719 11.9925 11.9113 11.9337 11.8515 11.9337C11.8189 11.9376 11.7858 11.9344 11.7547 11.9242C11.7235 11.914 11.695 11.8972 11.6713 11.8748C11.414 11.8235 11.1512 11.8038 10.889 11.816H8.54035C8.50776 11.8121 8.47468 11.8153 8.44351 11.8255C8.41234 11.8356 8.38386 11.8525 8.36014 11.8748C8.30497 11.9026 8.25882 11.945 8.22696 11.9973C8.1951 12.0496 8.17881 12.1097 8.17993 12.1706L7.69824 15.2496V15.3681C7.72676 15.2756 7.78152 15.1929 7.85611 15.13C7.93069 15.067 8.022 15.0263 8.11929 15.0126H9.02203C10.7677 15.0126 12.0915 14.3017 12.5126 12.348C12.5085 12.3159 12.5118 12.2833 12.5222 12.2527C12.5325 12.222 12.5496 12.194 12.5723 12.1706C12.4519 12.1118 12.3921 12.0522 12.2717 12.0522C12.0915 11.9933 12.0915 11.9933 12.0309 11.9933" fill="#232C65"/>
</svg>

<svg width="48" height="29" fill="none" xmlns="http://www.w3.org/2000/svg"><path d="M46.316 0H1.684C.754 0 0 .742 0 1.657v25.686C0 28.258.754 29 1.684 29h44.632c.93 0 1.684-.742 1.684-1.657V1.657C48 .742 47.246 0 46.316 0z" fill="#fff"/><path d="M34.308 12.188H32.26a.403.403 0 00-.3.237l-.842 5.21a.154.154 0 00.045.133.161.161 0 00.135.045h1.082a.163.163 0 00.135-.044.157.157 0 00.045-.133l.241-1.48a.27.27 0 01.101-.18.279.279 0 01.2-.058h.662a2.13 2.13 0 001.606-.473 2.037 2.037 0 00.74-1.48 1.526 1.526 0 00-.24-1.303 2.456 2.456 0 00-1.565-.474h.002zm.239 1.954c-.12.71-.662.71-1.203.71h-.362l.241-1.361c0-.06.06-.119.18-.119h.12c.362 0 .723 0 .903.237.12.059.12.237.12.533z" fill="#139AD6"/><path d="M19.62 12.188h-2.046a.402.402 0 00-.3.237l-.843 5.211a.154.154 0 00.046.133.16.16 0 00.134.044h.963a.403.403 0 00.3-.237l.241-1.42a.27.27 0 01.102-.18.279.279 0 01.199-.058h.662a2.13 2.13 0 001.607-.473 2.037 2.037 0 00.74-1.48 1.528 1.528 0 00-.241-1.303 2.34 2.34 0 00-1.565-.474h.001zm.24 1.954c-.12.71-.662.71-1.203.71h-.3l.24-1.361c0-.06.06-.119.18-.119h.12c.362 0 .723 0 .903.237a.628.628 0 01.06.533zm5.959-.059h-.966c-.06 0-.18.06-.18.119l-.06.296-.06-.119a1.417 1.417 0 00-1.143-.414 2.334 2.334 0 00-1.477.576 2.265 2.265 0 00-.75 1.378 1.738 1.738 0 00.361 1.48 1.539 1.539 0 001.263.474 1.951 1.951 0 001.385-.533l-.06.296a.154.154 0 00.046.133.16.16 0 00.134.045h.903a.403.403 0 00.3-.237l.542-3.315c-.06-.059-.18-.177-.24-.177l.002-.002zm-1.387 1.895a1.141 1.141 0 01-.397.678 1.173 1.173 0 01-.747.27.972.972 0 01-.662-.238 1.246 1.246 0 01-.18-.71c.02-.19.092-.37.207-.523a1.09 1.09 0 011.538-.188c.169.199.255.452.242.71" fill="#263B80"/><path d="M40.417 14.083h-.965c-.06 0-.18.06-.18.119l-.06.296-.06-.119a1.418 1.418 0 00-1.144-.414 2.333 2.333 0 00-1.476.576 2.264 2.264 0 00-.75 1.378 1.736 1.736 0 00.361 1.48 1.539 1.539 0 001.263.474 1.951 1.951 0 001.385-.533l-.06.296a.155.155 0 00.107.171.16.16 0 00.073.007h.903a.403.403 0 00.3-.237l.542-3.315c-.06-.059-.12-.177-.241-.177l.002-.002zm-1.386 1.895a1.142 1.142 0 01-.397.678c-.21.174-.474.269-.747.27a.972.972 0 01-.662-.238 1.248 1.248 0 01-.18-.71c.02-.19.091-.37.207-.523a1.09 1.09 0 011.538-.188.68.68 0 01.241.71" fill="#139AD6"/><path d="M31.016 14.083h-1.023a.316.316 0 00-.24.118l-1.325 2.014-.602-1.895a.281.281 0 00-.3-.177h-.963c-.12 0-.18.118-.18.237l1.083 3.138-1.023 1.421c-.06.119 0 .296.12.296h.963a.317.317 0 00.24-.118l3.31-4.679c.18-.177.06-.355-.06-.355z" fill="#263B80"/><path d="M41.562 12.365l-.842 5.33a.155.155 0 00.046.132.161.161 0 00.134.045h.843a.402.402 0 00.3-.237l.842-5.211a.155.155 0 00-.045-.133.16.16 0 00-.135-.044h-.962c-.06-.06-.12 0-.18.118z" fill="#139AD6"/><path d="M12.032 10.47a3.034 3.034 0 00-2.29-.705H6.736a.52.52 0 00-.421.354L5.11 17.816a.27.27 0 00.241.294h1.864l.482-2.879v.118a.506.506 0 01.42-.353h.904c1.746 0 3.07-.705 3.49-2.644v-.177a2.009 2.009 0 00-.48-1.704" fill="#263B80"/><path d="M12.453 12.128v.177c-.421 2.014-1.746 2.665-3.49 2.665h-.904a.52.52 0 00-.42.355l-.603 3.613a.214.214 0 00.064.174.221.221 0 00.177.063h1.565a.34.34 0 00.241-.076.33.33 0 00.12-.22v-.059l.3-1.835v-.119a.33.33 0 01.12-.22.34.34 0 01.242-.075h.24c1.505 0 2.709-.593 3.01-2.37a2.144 2.144 0 00-.301-1.776.614.614 0 00-.361-.295" fill="#139AD6"/><path d="M12.032 11.992c-.06 0-.12-.058-.18-.058a.225.225 0 01-.18-.06 3.233 3.233 0 00-.783-.058H8.54a.225.225 0 00-.18.059.33.33 0 00-.18.296l-.482 3.079v.118a.507.507 0 01.421-.355h.903c1.746 0 3.07-.711 3.49-2.665a.213.213 0 01.06-.177c-.12-.06-.18-.119-.3-.119-.18-.059-.18-.059-.241-.059" fill="#232C65"/></svg>
